icons/bug-fill.svg

<svg xmlns="http://www.w3.org/2000/svg" width="24" height="24" fill="none"><g clip-path="url(#a)"><g><path fill="#121212" d="M6.056 8.3C6.11975 8.19831 6.18611 8.09828 6.255 8H17.745C17.814 8.098 17.88 8.199 17.944 8.3L19.964 7.134L20.964 8.866L18.751 10.144C18.913 10.734 19 11.357 19 12V13H22V15H19C19 15.953 18.81 16.862 18.464 17.69L20.964 19.134L19.964 20.866L17.438 19.408C16.3292 20.7775 14.7442 21.6779 13 21.929V14H11V21.93C9.2557 21.6787 7.67064 20.7779 6.562 19.408L4.036 20.866L3.036 19.134L5.536 17.691C5.18102 16.8383 4.99884 15.9236 5 15H2V13H5V12C5 11.357 5.087 10.735 5.249 10.144L3.036 8.866L4.036 7.134L6.056 8.3ZM8 6C8 4.93913 8.42143 3.92172 9.17157 3.17157C9.92172 2.42143 10.9391 2 12 2C13.0609 2 14.0783 2.42143 14.8284 3.17157C15.5786 3.92172 16 4.93913 16 6H8Z"/></g></g><defs><clipPath id="a"><rect width="24" height="24" fill="white"/></clipPath></defs></svg>

<svg width="24" height="24" fill="none" xmlns="http://www.w3.org/2000/svg"><g clip-path="url(#a)"><path d="M6.056 8.3c.064-.102.13-.202.199-.3h11.49c.069.098.135.199.199.3l2.02-1.166 1 1.732-2.213 1.278c.162.59.249 1.213.249 1.856v1h3v2h-3a6.96 6.96 0 0 1-.536 2.69l2.5 1.444-1 1.732-2.526-1.458A6.992 6.992 0 0 1 13 21.929V14h-2v7.93a6.992 6.992 0 0 1-4.438-2.522l-2.526 1.458-1-1.732 2.5-1.443A6.98 6.98 0 0 1 5 15H2v-2h3v-1c0-.643.087-1.265.249-1.856L3.036 8.866l1-1.732L6.056 8.3ZM8 6a4 4 0 0 1 8 0H8Z" /></g><defs><clipPath id="a"><path fill="#fff" d="M0 0h24v24H0z"/></clipPath></defs></svg>
